X:1
T:Title
%%score { 1 | 2 }
L:1/8
M:2/4
K:Db
V:1 treble nm="Grand Piano"
V:2 bass 
V:1
 z2 z[Q:1/4=100] [FA] | [GB][FA] [DF][DA] | [Fd]3 A | BA D[B,DF] |[M:3/8] [CEA]3 |[M:1/8] A | %6
[M:2/4] Bc de | [Ff][Fd] [DA][DB] | [DA][DF] [CE]>D |[M:3/8] D3 |[M:1/8] [FA] | %11
[M:2/4] [GB][FA] [DF][DA] | [Fd]3 A | BA D[B,DF] |[M:3/8] [CEA]3 |[M:1/8] A |[M:2/4] Bc de | %17
 [Ff][Fd] [DA][DB] | [DA][DF] [CE]>D |[M:3/8] D3 |[M:1/8] D |[M:2/4] F[FA] [FA]>[GB] | [FA]3 [FA] | %23
 Bd d>e | [Fd]3 [Ae] | [Af]>[Ge] [Fd][GB] | [FA][DF] [Fd]>B | A<F[K:bass] [=G,DE]>[G,D] | %28
 [A,CE]3 [F,D] | [A,DF]<[FA] [FA]>[GB] | [FA]3 [FA] | B<d d>e | [Fd]3 [Ae] | [Af]>[Ge] [Fd][GB] | %34
[M:9/16] [FA][DF]/-[DF]/[Fd]-[Fd]/[DGB] | %35
[M:2/4] [DFA]<[A,DF][K:bass] [G,CE]>[A,CF][Q:1/4=98][Q:1/4=96][Q:1/4=94][Q:1/4=92][Q:1/4=90][Q:1/4=88][Q:1/4=85][Q:1/4=83][Q:1/4=81][Q:1/4=79][Q:1/4=77] | %36
[M:3/8] [F,D]3 |] %37
V:2
 z2 z [D,D] | [D,D][D,D] [D,A,][D,F,] | [D,A,]3 [D,F,D] | [D,G,D][D,F,D] [B,,F,]B,, |[M:3/8] A,,3 | %5
[M:1/8] [F,D] |[M:2/4] [G,DG][G,EG] [G,DG][G,B,G] | [D,A,][D,A,] [D,F,][G,,G,] | %8
 [A,,F,][A,,A,] [A,,G,]>[A,,F,] |[M:3/8] [D,F,]3 |[M:1/8] [D,D] |[M:2/4] [D,D][D,D] [D,A,][D,F,] | %12
 [D,A,]3 [D,F,D] | [D,G,D][D,F,D] [B,,F,]B,, |[M:3/8] A,,3 |[M:1/8] [F,D] | %16
[M:2/4] [G,DG][G,EG] [G,DG][G,B,G] | [D,A,][D,A,] [D,F,][G,,G,] | [A,,F,][A,,A,] [A,,G,]>[A,,F,] | %19
[M:3/8] [D,F,]3 |[M:1/8] [D,F,] |[M:2/4] [D,A,D][D,D] [D,D]>[D,D] | [D,D]3 [D,D] | %23
 [G,DG][G,B,G] [G,B,G]>[G,B,G] | [D,A,]3 [A,,C] | [D,D]>[D,A,] [D,A,][D,D] | %26
 [D,D][D,A,] [D,A,]>[D,G,D] | [D,F,D]<[D,A,D] B,,>B,, | A,,3 D, | D,<[D,D] [D,D]>[D,D] | %30
 [D,D]3 [D,D] | [G,DG]<[G,B,G] [G,B,G]>[G,B,G] | [D,A,]3 [A,,C] | [D,D]>[D,A,] [D,A,][D,D] | %34
[M:9/16] [D,D][D,A,]/-[D,A,]/[B,,B,]-[B,,B,]/G,, |[M:2/4] A,,<A,, A,,>A,, |[M:3/8] D,3 |] %37

